; HEADER_BLOCK_START
; generated by AnycubicSlicerNext 1.3.5.2 on 2025-06-06 at 02:44:24
; total layer number: 5
; filament_density: 1.23,1.23
; filament_diameter: 1.75,1.75
; max_z_height: 1.00
; exclude_object: 1
; model_instances: 1
; source_info: {"models":[{"file_source":0,"mo_file_id":-1,"name":"Flaps_2-2_W-9_Flaps_id_0_copy_0"}],"models_from":0,"plate_index":1,"slice_paras_process":1,"software_version":"AnycubicSlicerNext 1.3.5.2 20250529154022"}
; HEADER_BLOCK_END

; THUMBNAIL_BLOCK_START
; THUMBNAIL_BLOCK_END

; THUMBNAIL_BLOCK_START
; THUMBNAIL_BLOCK_END

; external perimeters extrusion width = 0.42mm
; perimeters extrusion width = 0.45mm
; infill extrusion width = 0.45mm
; solid infill extrusion width = 0.42mm
; top infill extrusion width = 0.42mm
; first layer extrusion width = 0.50mm

; external perimeters extrusion width = 0.42mm
; perimeters extrusion width = 0.45mm
; infill extrusion width = 0.45mm
; solid infill extrusion width = 0.42mm
; top infill extrusion width = 0.42mm
; first layer extrusion width = 0.50mm

; EXECUTABLE_BLOCK_START
EXCLUDE_OBJECT_DEFINE NAME=Flaps_2-2_W-9_Flaps_id_0_copy_0 CENTER=127.627,106.905 POLYGON=[[14.5275,68.0759],[17.4275,35.5474],[181.027,35.5474],[237.827,108.405],[240.727,140.933],[237.827,178.24],[17.4275,178.262],[14.5275,145.733],[14.5275,68.0759]]
M201 X20000 Y20000 Z500 E5000 ; sets machine_max_acceleration_x, y, z, e (mm/sec^2)
M203 X600 Y600 Z10 E80 ; sets machine_max_speed_x, y, z, e (mm/sec)
M204 P20000 R20000 T20000 ; sets machine_max_acceleration(mm/sec^2) M204 P[print] R[retract] T[travel]
M205 X20.00 Y20.00 Z3.00 E5.00 ; sets the jerk limits, mm/sec
;TYPE:Custom
G9111 bedTemp=70 extruderTemp=230
M117
M900 K0.051
; print_bed_min = 0,0
; print_bed_max = 255,255
; print_bed_size = 255,255
; first_layer_print_min = 12.5274,33.5473
; first_layer_print_max = 242.728,225.028
; first_layer_print_size = 230.2,191.481
G90
G21
M83 ; use relative distances for extrusion
; FLUSH_START
;;; M400 P0
T1 ; change extruder
; 1
;;; G1 E-2 F2400
;;; G1 Z5 F600
;;; G1 X271.5 F12000
;;; G1 E-5 F600
;;; G1 X278 F600
;;; M400 P3530
;;; G1 E-1 F600
;;; G1 Z7  F600
;;; G1 X278 F18000
;;; G1 X271.5 F1200
;;; G1 E2 F300
;;; M400 P31050
;;; M400 P17510
; 2
;;; G1 X278 F18000
;;; G1 X271.5 F1200
;;; G1 E2 F300
;;; M400 P0
;;; G1 X250 F1200
;;; M400 P0
;;; G1 X278 F18000
;;; G1 X271.5 F1200
;;; G1 E2 F300
;;; M400 P0
; 3.1
;;; M106 S255
;;; G1 X36 Y260 Z-0.8 F9600
;;; G1 X50 Y260 Z1 F9600
;;; G1 X86 Y260 Z1 F9600
;;; G1 X90 Y260 Z-0.8 F9600
;;; G1 X90 Y259 Z-0.8 F9600
;;; G1 X86 Y259 Z1 F9600
;;; G1 X50 Y259 Z1 F9600
;;; G1 X36 Y259 Z-0.8 F9600
; 3.2
;;; G1 X36 Y260 Z-0.8 F9600
;;; G1 X50 Y260 Z1 F9600
;;; G1 X86 Y260 Z1 F9600
;;; G1 X90 Y260 Z-0.8 F9600
;;; G1 X90 Y259 Z-0.8 F9600
;;; G1 X86 Y259 Z1 F9600
;;; G1 X50 Y259 Z1 F9600
;;; G1 X36 Y259 Z-0.8 F9600
; 3.3
;;; G1 X36 Y260 Z-0.8 F9600
;;; G1 X50 Y260 Z1 F9600
;;; G1 X86 Y260 Z1 F9600
;;; G1 X90 Y260 Z-0.8 F9600
;;; G1 X90 Y259 Z-0.8 F9600
;;; G1 X86 Y259 Z1 F9600
;;; G1 X50 Y259 Z1 F9600
;;; G1 X36 Y259 Z-0.8 F9600
;;; G1 Z0
;;; M400 P0
; FLUSH_END
;_FORCE_RESUME_FAN_SPEED
; filament start gcode
G1 Z.2 F21000
M106 S0
;LAYER_CHANGE
;Z:0.2
;HEIGHT:0.2
; BEFORE_LAYER_CHANGE 0 @ 0.2mm
; AFTER_LAYER_CHANGE 0 @ 0.2mm
M204 P500
SET_VELOCITY_LIMIT SQUARE_CORNER_VELOCITY=9
; printing object "Flaps_2-2_W-9_Flaps" id:0 copy 0
EXCLUDE_OBJECT_START NAME=Flaps_2-2_W-9_Flaps_id_0_copy_0
G1 Z0.200 ; for object exclusion
G1 E-2 F4800
G1 X148.812 Y49.861 F21000
G1 Z.6
G1 Z.2
G1 E2 F4800
;TYPE:Inner wall
;WIDTH:0.5
;HEIGHT:0.2
G1 F3000
G1 X148.753 Y49.896 E.00247
G1 X146.599 Y52.862 E.13237
G1 X145.887 Y56.647 E.13904
G1 X146.581 Y60.134 E.1284
G1 X148.67 Y63.024 E.12874
G1 X151.897 Y64.944 E.13557
G1 X155.987 Y65.572 E.14941
G1 X160.111 Y64.944 E.15063
G1 X163.363 Y63.026 E.13631
G1 X165.468 Y60.136 E.12908
G1 X166.168 Y56.646 E.12853
G1 X165.445 Y52.858 E.13923
G1 X163.258 Y49.893 E.13304
G1 X159.982 Y48.009 E.13644
G1 X155.987 Y47.392 E.14595
G1 X152.001 Y48.01 E.14566
G1 X148.847 Y49.841 E.13169
G1 X149.066 Y50.242 F21000
;TYPE:Outer wall
G1 F3000
G1 X147.029 Y53.048 E.12518
G1 X146.352 Y56.644 E.13213
G1 X147.01 Y59.947 E.12161
G1 X148.985 Y62.68 E.12172
G1 X152.054 Y64.505 E.12894
G1 X155.987 Y65.109 E.14368
G1 X159.955 Y64.506 E.14491
G1 X163.049 Y62.68 E.12971
G1 X165.04 Y59.948 E.12205
G1 X165.703 Y56.644 E.12168
G1 X165.015 Y53.046 E.13225
G1 X162.947 Y50.241 E.12583
G1 X159.828 Y48.448 E.1299
G1 X155.988 Y47.854 E.14032
G1 X152.156 Y48.448 E.14
G1 X149.101 Y50.222 E.12756
G1 E-1.6 F4800
;WIPE_START
G1 F3000
G1 X147.918 Y51.835 E-.4
;WIPE_END
G1 X153.338 Y57.209 Z.6 F21000
G1 X163.819 Y67.602 Z.6
G1 Z.2
G1 E2 F4800
;TYPE:Inner wall
G1 F3000
G1 X166.136 Y68.915 E.09614
G1 X166.082 Y69.119 E.00763
G1 X145.921 Y69.119 E.72794
G1 X145.867 Y68.914 E.00764
G1 X148.083 Y67.663 E.09188
G1 X144.083 Y65.09 E.17172
G1 X141.805 Y62.531 E.1237
G1 X140.318 Y59.454 E.12338
G1 X139.823 Y56.037 E.1247
G1 X140.331 Y52.348 E.13443
G1 X141.853 Y49.033 E.13171
G1 X144.282 Y46.209 E.13449
G1 X147.507 Y44.012 E.14092
G1 X151.438 Y42.598 E.1508
G1 X155.988 Y42.123 E.16519
G1 X160.574 Y42.598 E.16646
G1 X164.529 Y44.013 E.15167
G1 X167.769 Y46.21 E.14135
G1 X170.202 Y49.034 E.13458
G1 X171.724 Y52.348 E.13169
G1 X172.233 Y56.038 E.13447
G1 X171.746 Y59.458 E.12475
G1 X170.289 Y62.532 E.1228
G1 X168.001 Y65.071 E.12342
G1 X163.853 Y67.581 E.17505
G1 X164.723 Y67.589 F21000
;TYPE:Outer wall
G1 F3000
G1 X168.231 Y69.576 E.14555
G1 X143.766 Y69.576 E.88333
G1 X147.198 Y67.638 E.14234
G1 X143.784 Y65.44 E.14662
G1 X141.421 Y62.788 E.12826
G1 X139.876 Y59.59 E.12824
G1 X139.361 Y56.038 E.12957
G1 X139.887 Y52.219 E.13921
G1 X141.464 Y48.784 E.13647
G1 X143.974 Y45.865 E.139
G1 X147.298 Y43.602 E.14519
G1 X151.335 Y42.149 E.1549
G1 X155.988 Y41.664 E.1689
G1 X160.676 Y42.149 E.17017
G1 X164.737 Y43.602 E.15575
G1 X168.076 Y45.866 E.14563
G1 X170.591 Y48.784 E.1391
G1 X172.168 Y52.219 E.13647
G1 X172.694 Y56.039 E.13922
G1 X172.189 Y59.591 E.12956
G1 X170.674 Y62.788 E.12772
G1 X168.295 Y65.427 E.12827
G1 X164.757 Y67.568 E.14931
G1 E-1.6 F4800
;WIPE_START
G1 F3000
G1 X166.489 Y68.569 E-.4
;WIPE_END
G1 X165.946 Y60.956 Z.6 F21000
G1 X164.761 Y44.336 Z.6
G1 Z.2
G1 E2 F4800
;TYPE:Bottom surface
;WIDTH:0.500937
G1 F3000
G1 X170.136 Y49.711 E.27504
G1 X170.686 Y50.909 E.04768
G1 X163.946 Y44.168 E.3449
G1 X162.937 Y43.808 E.03875
G1 X171.236 Y52.107 E.42463
G1 X171.392 Y52.445 E.01347
G1 X171.466 Y52.984 E.01969
G1 X161.929 Y43.447 E.48797
G1 X160.921 Y43.087 E.03875
G1 X171.569 Y53.735 E.54486
G1 X171.673 Y54.487 E.02743
G1 X160.078 Y42.892 E.59327
G1 X159.355 Y42.817 E.02628
G1 X171.776 Y55.238 E.63553
G1 X171.88 Y55.989 E.02743
G1 X158.633 Y42.742 E.6778
G1 X157.91 Y42.667 E.02628
G1 X171.811 Y56.568 E.71124
G1 X171.73 Y57.135 E.02072
G1 X157.188 Y42.592 E.74409
G1 X156.465 Y42.517 E.02628
G1 X171.65 Y57.702 E.77693
G1 X171.569 Y58.269 E.02072
G1 X165.063 Y51.763 E.33287
G1 X163.491 Y49.632 E.09583
G1 X162.174 Y48.874 E.05497
G1 X155.789 Y42.489 E.32672
G1 X155.202 Y42.55 E.02134
G1 X160.65 Y47.998 E.27874
G1 X160.098 Y47.68 E.02305
G1 X159.609 Y47.605 E.01789
G1 X154.616 Y42.611 E.25549
G1 X154.029 Y42.672 E.02134
G1 X158.843 Y47.486 E.2463
G1 X158.077 Y47.368 E.02805
G1 X153.443 Y42.734 E.23711
G1 X152.856 Y42.795 E.02134
G1 X157.311 Y47.249 E.22792
G1 X156.544 Y47.131 E.02805
G1 X152.27 Y42.856 E.21873
G1 X151.683 Y42.917 E.02134
G1 X155.834 Y47.068 E.2124
G1 X155.273 Y47.155 E.02053
G1 X151.175 Y43.057 E.2097
G1 X150.699 Y43.228 E.01832
G1 X154.713 Y47.242 E.20538
G1 X154.152 Y47.329 E.02053
G1 X150.222 Y43.4 E.20106
G1 X149.746 Y43.571 E.01832
G1 X153.591 Y47.416 E.19674
G1 X153.03 Y47.503 E.02053
G1 X149.27 Y43.743 E.19241
G1 X148.793 Y43.914 E.01832
G1 X152.469 Y47.59 E.18809
G1 X151.909 Y47.677 E.02053
G1 X148.317 Y44.085 E.18377
G1 X147.841 Y44.257 E.01832
G1 X151.492 Y47.908 E.18684
G1 X151.083 Y48.146 E.01714
G1 X147.422 Y44.485 E.18732
G1 X147.036 Y44.748 E.01687
G1 X150.673 Y48.384 E.18607
G1 X150.263 Y48.622 E.01714
G1 X146.651 Y45.01 E.18482
G1 X146.266 Y45.273 E.01687
G1 X149.853 Y48.86 E.18357
G1 X149.444 Y49.098 E.01714
G1 X145.88 Y45.535 E.18232
G1 X145.495 Y45.797 E.01687
G1 X149.034 Y49.336 E.18107
G1 X148.624 Y49.574 E.01714
G1 X145.11 Y46.06 E.17982
G1 X144.724 Y46.322 E.01687
G1 X148.316 Y49.914 E.18378
G1 X148.044 Y50.289 E.01678
G1 X144.378 Y46.623 E.18759
G1 X144.078 Y46.971 E.01662
G1 X147.771 Y50.665 E.18897
G1 X147.499 Y51.04 E.01678
G1 X143.779 Y47.32 E.19035
G1 X143.479 Y47.668 E.01662
G1 X147.226 Y51.415 E.19173
G1 X146.954 Y51.79 E.01678
G1 X143.18 Y48.016 E.19311
G1 X142.88 Y48.364 E.01662
G1 X146.681 Y52.165 E.19449
G1 X146.409 Y52.541 E.01678
G1 X142.581 Y48.713 E.19587
G1 X142.281 Y49.061 E.01662
G1 X146.223 Y53.003 E.20172
G1 X146.121 Y53.548 E.02007
G1 X142.033 Y49.461 E.20914
G1 X141.83 Y49.905 E.01767
G1 X146.018 Y54.094 E.21432
G1 X145.916 Y54.639 E.02007
G1 X141.626 Y50.349 E.2195
G1 X141.422 Y50.793 E.01767
G1 X145.813 Y55.184 E.22468
G1 X145.711 Y55.729 E.02007
G1 X141.218 Y51.237 E.22986
G1 X141.014 Y51.68 E.01767
G1 X145.608 Y56.274 E.23504
G1 X145.538 Y56.648 E.01377
G1 X145.588 Y56.902 E.00936
G1 X140.81 Y52.124 E.24446
G1 X140.663 Y52.445 E.01277
G1 X140.641 Y52.603 E.00577
G1 X145.749 Y57.711 E.26134
G1 X145.91 Y58.519 E.02983
G1 X140.563 Y53.172 E.27359
G1 X140.485 Y53.742 E.02079
G1 X146.071 Y59.328 E.28584
G1 X146.232 Y60.137 E.02983
G1 X140.224 Y54.129 E.30742
G1 E-1.6 F4800
;WIPE_START
G1 F3000
G1 X141.638 Y55.543 E-.4
;WIPE_END
G1 X149.226 Y54.722 Z.6 F21000
G1 X165.602 Y52.95 Z.6
G1 Z.2
G1 E2 F4800
G1 F3000
G1 X171.488 Y58.836 E.30118
G1 X171.398 Y59.393 E.02042
G1 X166.014 Y54.009 E.27547
G1 X166.167 Y54.81 E.02949
G1 X171.189 Y59.832 E.25698
G1 X170.981 Y60.272 E.0176
G1 X166.32 Y55.611 E.2385
G1 X166.473 Y56.411 E.02949
G1 X170.773 Y60.711 E.22002
G1 X170.564 Y61.151 E.0176
G1 X166.442 Y57.028 E.21096
G1 X166.333 Y57.567 E.01991
G1 X170.356 Y61.59 E.20584
G1 X170.148 Y62.03 E.0176
G1 X166.225 Y58.107 E.20072
G1 X166.117 Y58.646 E.01991
G1 X169.91 Y62.44 E.1941
G1 X169.603 Y62.781 E.01659
G1 X166.009 Y59.186 E.18393
G1 X165.9 Y59.725 E.01991
G1 X169.296 Y63.121 E.17376
G1 X168.989 Y63.462 E.01659
G1 X165.792 Y60.265 E.16358
G1 X165.523 Y60.644 E.01681
G1 X168.682 Y63.803 E.16164
G1 X168.375 Y64.143 E.01659
G1 X165.25 Y61.018 E.1599
G1 X164.977 Y61.393 E.01677
G1 X168.068 Y64.484 E.15816
G1 X167.78 Y64.803 E.01556
G1 X167.755 Y64.819 E.00106
G1 X164.704 Y61.768 E.15611
G1 X164.431 Y62.142 E.01677
G1 X167.351 Y65.063 E.14943
G1 X166.948 Y65.307 E.01706
G1 X164.158 Y62.517 E.14275
G1 X163.885 Y62.892 E.01677
G1 X166.544 Y65.551 E.13608
G1 X166.141 Y65.796 E.01706
G1 X163.612 Y63.267 E.1294
G1 X163.211 Y63.514 E.01703
G1 X165.737 Y66.04 E.12926
G1 X165.334 Y66.284 E.01706
G1 X162.804 Y63.754 E.12946
G1 X162.396 Y63.994 E.01711
G1 X164.931 Y66.528 E.12966
G1 X164.527 Y66.773 E.01706
G1 X161.989 Y64.235 E.12986
G1 X161.582 Y64.475 E.01711
G1 X164.124 Y67.017 E.13007
G1 X163.72 Y67.261 E.01706
G1 X161.174 Y64.715 E.13027
G1 X160.767 Y64.956 E.01711
G1 X164.587 Y68.776 E.19548
G1 X163.94 Y68.776 E.02344
G1 X160.359 Y65.196 E.18319
G1 X160.229 Y65.273 E.00549
G1 X159.847 Y65.331 E.01397
G1 X163.292 Y68.776 E.17627
G1 X162.644 Y68.776 E.02344
G1 X159.285 Y65.417 E.17189
G1 X158.722 Y65.502 E.02057
G1 X161.996 Y68.776 E.16752
G1 X161.349 Y68.776 E.02344
G1 X158.16 Y65.588 E.16314
G1 X157.598 Y65.673 E.02057
G1 X160.701 Y68.776 E.15876
G1 X160.053 Y68.776 E.02344
G1 X157.036 Y65.759 E.15439
G1 X156.474 Y65.844 E.02057
G1 X159.405 Y68.776 E.15001
G1 X158.758 Y68.776 E.02344
G1 X155.884 Y65.903 E.14703
G1 X155.119 Y65.785 E.02801
G1 X158.11 Y68.776 E.15304
G1 X157.462 Y68.776 E.02344
G1 X154.354 Y65.668 E.15905
G1 X153.589 Y65.55 E.02801
G1 X156.814 Y68.776 E.16506
G1 X156.167 Y68.776 E.02344
G1 X152.823 Y65.433 E.17107
G1 X152.058 Y65.315 E.02801
G1 X155.519 Y68.776 E.17708
G1 X154.871 Y68.776 E.02344
G1 X150.173 Y64.078 E.2404
G1 E-1.6 F4800
;WIPE_START
G1 F3000
G1 X151.587 Y65.492 E-.4
;WIPE_END
G1 X154.429 Y68.982 Z.6 F21000
G1 Z.2
G1 E2 F4800
G1 F3000
G1 X140.328 Y54.88 E.72152
G1 X140.249 Y55.45 E.02079
G1 X153.576 Y68.776 E.68186
G1 X152.928 Y68.776 E.02344
G1 X140.171 Y56.019 E.65273
G1 X140.276 Y56.771 E.02748
G1 X152.28 Y68.776 E.61424
G1 X151.633 Y68.776 E.02344
G1 X140.385 Y57.529 E.57548
G1 X140.495 Y58.286 E.0277
G1 X150.985 Y68.776 E.53672
G1 X150.337 Y68.776 E.02344
G1 X140.605 Y59.044 E.49795
G1 X140.65 Y59.353 E.01129
G1 X141.008 Y60.095 E.02983
G1 X149.689 Y68.776 E.44417
G1 X149.042 Y68.776 E.02344
G1 X148.236 Y67.97 E.04122
G1 X147.822 Y68.204 E.0172
G1 X148.394 Y68.776 E.02926
G1 X147.746 Y68.776 E.02344
G1 X147.408 Y68.438 E.0173
G1 X146.994 Y68.672 E.0172
G1 X147.304 Y68.982 E.01587
G1 E-1.6 F4800
;WIPE_START
G1 F3000
G1 X146.994 Y68.672 E-.08772
G1 X147.408 Y68.438 E-.09508
G1 X147.746 Y68.776 E-.09566
G1 X148.354 Y68.776 E-.12154
;WIPE_END
G1 X147.193 Y66.928 Z.6 F21000
G1 Z.2
G1 E2 F4800
G1 F3000
G1 X141.614 Y61.348 E.28548
G1 X142.093 Y62.339 E.03982
G1 X143.197 Y63.579 E.06007
G1 X145.377 Y65.759 E.11153
G1 E-1.6 F4800
;WIPE_START
G1 F3000
G1 X143.962 Y64.345 E-.4
;WIPE_END
G1 X149.659 Y59.265 Z.6 F21000
G1 X161.578 Y48.636 Z.6
G1 Z.2
G1 E2 F4800
;TYPE:Gap infill
;WIDTH:0.122191
G1 F3000
G1 X161.4 Y48.5 E.0014
;WIDTH:0.171032
G1 X161.223 Y48.363 E.00227
;WIDTH:0.219874
G1 X161.045 Y48.227 E.00313
;WIDTH:0.244294
G1 X160.867 Y48.091 E.00356
G1 E-1.6416 F4800
;WIPE_START
G1 F3000
G1 X161.045 Y48.227 E-.3584
;WIPE_END
G1 X164.647 Y44.45 Z.6 F21000
G1 Z.2
G1 E2 F4800
;WIDTH:0.142358
G1 F3000
G1 X164.407 Y44.252 E.00244
;WIDTH:0.118805
G1 X164.344 Y44.212 E.00045
G1 E-1.87934 F4800
;WIPE_START
G1 F3000
G1 X164.407 Y44.252 E-.12066
;WIPE_END
G1 X170.021 Y49.24 Z.6 F21000
G1 Z.2
G1 E2 F4800
;WIDTH:0.1063
G1 F3000
G1 X169.978 Y49.178 E.00038
;WIDTH:0.137319
G1 X169.565 Y48.733 E.00452
;WIDTH:0.182295
G1 X169.152 Y48.289 E.00668
;WIDTH:0.227272
G1 X168.739 Y47.844 E.00883
;WIDTH:0.272249
G1 X168.327 Y47.4 E.01099
;WIDTH:0.317225
G1 X167.914 Y46.955 E.01314
;WIDTH:0.362202
G1 X167.501 Y46.511 E.0153
;WIDTH:0.360779
G1 X167.303 Y46.347 E.00646
;WIDTH:0.312959
G1 X167.105 Y46.183 E.00549
;WIDTH:0.265139
G1 X166.907 Y46.019 E.00451
;WIDTH:0.217319
G1 X166.708 Y45.856 E.00354
;WIDTH:0.169499
G1 X166.51 Y45.692 E.00257
;WIDTH:0.145589
G1 X166.312 Y45.528 E.00209
G1 E-1.6 F4800
;WIPE_START
G1 F3000
G1 X166.51 Y45.692 E-.4
;WIPE_END
G1 X171.121 Y51.636 Z.6 F21000
G1 Z.2
G1 E2 F4800
;WIDTH:0.118794
G1 F3000
G1 X171.033 Y51.509 E.00092
;WIDTH:0.160842
G1 X170.945 Y51.383 E.00143
;WIDTH:0.202889
G1 X170.857 Y51.257 E.00194
;WIDTH:0.223913
G1 X170.769 Y51.13 E.0022
G1 E-1.75387 F4800
;WIPE_START
G1 F3000
G1 X170.857 Y51.257 E-.24613
;WIPE_END
G1 X164.702 Y55.77 Z.6 F21000
G1 X151.869 Y65.181 Z.6
G1 Z.2
G1 E2 F4800
;WIDTH:0.141843
G1 F3000
G1 X151.789 Y65.212 E.00068
;WIDTH:0.182781
G1 X151.757 Y65.222 E.00037
;WIDTH:0.188802
G1 X151.634 Y65.126 E.0018
;WIDTH:0.152389
G1 X151.511 Y65.03 E.00135
;WIDTH:0.134182
G1 X151.388 Y64.935 E.00112
G1 E-1.75059 F4800
;WIPE_START
G1 F3000
G1 X151.511 Y65.03 E-.24941
;WIPE_END
G1 X150.058 Y64.193 Z.6 F21000
G1 Z.2
G1 E2 F4800
;WIDTH:0.145011
G1 F3000
G1 X149.923 Y64.088 E.00137
;WIDTH:0.129264
G1 X149.789 Y63.984 E.00116
G1 E-1.72748 F4800
;WIPE_START
G1 F3000
G1 X149.923 Y64.088 E-.27252
;WIPE_END
G1 X147.119 Y61.312 Z.6 F21000
G1 Z.2
G1 E2 F4800
;WIDTH:0.119861
G1 F3000
G1 X146.916 Y61.074 E.00191
;WIDTH:0.164044
G1 X146.713 Y60.835 E.003
;WIDTH:0.208227
G1 X146.509 Y60.596 E.0041
;WIDTH:0.230319
G1 X146.306 Y60.357 E.00464
G1 E-1.6 F4800
;WIPE_START
G1 F3000
G1 X146.509 Y60.596 E-.4
;WIPE_END
G1 X141.529 Y61.128 Z.6 F21000
G1 Z.2
G1 E2 F4800
;WIDTH:0.249854
G1 F3000
G1 X141.433 Y60.993 E.00271
;WIDTH:0.206401
G1 X141.337 Y60.858 E.00214
;WIDTH:0.162949
G1 X141.241 Y60.723 E.00157
;WIDTH:0.141223
G1 X141.145 Y60.588 E.00129
G1 E-1.73502 F4800
;WIPE_START
G1 F3000
G1 X141.241 Y60.723 E-.26498
;WIPE_END
G1 X145.801 Y65.894 Z.6 F21000
G1 Z.2
G1 E2 F4800
