; HEADER_BLOCK_START
; generated by AnycubicSlicerNext 1.3.5.2 on 2025-06-06 at 02:42:46
; total layer number: 5
; filament_density: 1.23,1.23
; filament_diameter: 1.75,1.75
; max_z_height: 1.00
; exclude_object: 1
; model_instances: 1
; source_info: {"models":[{"file_source":0,"mo_file_id":-1,"name":"Flaps_2-2_A-U_flap_id_0_copy_0"}],"models_from":0,"plate_index":1,"slice_paras_process":1,"software_version":"AnycubicSlicerNext 1.3.5.2 20250529154022"}
; HEADER_BLOCK_END

; THUMBNAIL_BLOCK_START
; THUMBNAIL_BLOCK_END

; THUMBNAIL_BLOCK_START
; THUMBNAIL_BLOCK_END

; external perimeters extrusion width = 0.42mm
; perimeters extrusion width = 0.45mm
; infill extrusion width = 0.45mm
; solid infill extrusion width = 0.42mm
; top infill extrusion width = 0.42mm
; first layer extrusion width = 0.50mm

; external perimeters extrusion width = 0.42mm
; perimeters extrusion width = 0.45mm
; infill extrusion width = 0.45mm
; solid infill extrusion width = 0.42mm
; top infill extrusion width = 0.42mm
; first layer extrusion width = 0.50mm

; EXECUTABLE_BLOCK_START
EXCLUDE_OBJECT_DEFINE NAME=Flaps_2-2_A-U_flap_id_0_copy_0 CENTER=127.737,118.998 POLYGON=[[14.6375,43.7412],[17.5375,11.2127],[237.933,11.2127],[240.837,43.7412],[240.837,194.255],[237.937,226.784],[74.3375,226.784],[17.5375,191.306],[14.6375,158.777],[14.6375,43.7412]]
M201 X20000 Y20000 Z500 E5000 ; sets machine_max_acceleration_x, y, z, e (mm/sec^2)
M203 X600 Y600 Z10 E80 ; sets machine_max_speed_x, y, z, e (mm/sec)
M204 P20000 R20000 T20000 ; sets machine_max_acceleration(mm/sec^2) M204 P[print] R[retract] T[travel]
M205 X20.00 Y20.00 Z3.00 E5.00 ; sets the jerk limits, mm/sec
;TYPE:Custom
G9111 bedTemp=70 extruderTemp=230
M117
M900 K0.051
; print_bed_min = 0,0
; print_bed_max = 255,255
; print_bed_size = 255,255
; first_layer_print_min = 12.6374,9.21258
; first_layer_print_max = 242.838,228.784
; first_layer_print_size = 230.2,219.572
G90
G21
M83 ; use relative distances for extrusion
; FLUSH_START
;;; M400 P0
T1 ; change extruder
; 1
;;; G1 E-2 F2400
;;; G1 Z5 F600
;;; G1 X271.5 F12000
;;; G1 E-5 F600
;;; G1 X278 F600
;;; M400 P3530
;;; G1 E-1 F600
;;; G1 Z7  F600
;;; G1 X278 F18000
;;; G1 X271.5 F1200
;;; G1 E2 F300
;;; M400 P31050
;;; M400 P17510
; 2
;;; G1 X278 F18000
;;; G1 X271.5 F1200
;;; G1 E2 F300
;;; M400 P0
;;; G1 X250 F1200
;;; M400 P0
;;; G1 X278 F18000
;;; G1 X271.5 F1200
;;; G1 E2 F300
;;; M400 P0
; 3.1
;;; M106 S255
;;; G1 X36 Y260 Z-0.8 F9600
;;; G1 X50 Y260 Z1 F9600
;;; G1 X86 Y260 Z1 F9600
;;; G1 X90 Y260 Z-0.8 F9600
;;; G1 X90 Y259 Z-0.8 F9600
;;; G1 X86 Y259 Z1 F9600
;;; G1 X50 Y259 Z1 F9600
;;; G1 X36 Y259 Z-0.8 F9600
; 3.2
;;; G1 X36 Y260 Z-0.8 F9600
;;; G1 X50 Y260 Z1 F9600
;;; G1 X86 Y260 Z1 F9600
;;; G1 X90 Y260 Z-0.8 F9600
;;; G1 X90 Y259 Z-0.8 F9600
;;; G1 X86 Y259 Z1 F9600
;;; G1 X50 Y259 Z1 F9600
;;; G1 X36 Y259 Z-0.8 F9600
; 3.3
;;; G1 X36 Y260 Z-0.8 F9600
;;; G1 X50 Y260 Z1 F9600
;;; G1 X86 Y260 Z1 F9600
;;; G1 X90 Y260 Z-0.8 F9600
;;; G1 X90 Y259 Z-0.8 F9600
;;; G1 X86 Y259 Z1 F9600
;;; G1 X50 Y259 Z1 F9600
;;; G1 X36 Y259 Z-0.8 F9600
;;; G1 Z0
;;; M400 P0
; FLUSH_END
;_FORCE_RESUME_FAN_SPEED
; filament start gcode
G1 Z.2 F21000
M106 S0
;LAYER_CHANGE
;Z:0.2
;HEIGHT:0.2
; BEFORE_LAYER_CHANGE 0 @ 0.2mm
; AFTER_LAYER_CHANGE 0 @ 0.2mm
M204 P500
SET_VELOCITY_LIMIT SQUARE_CORNER_VELOCITY=9
; printing object "Flaps_2-2_A-U_flap" id:0 copy 0
EXCLUDE_OBJECT_START NAME=Flaps_2-2_A-U_flap_id_0_copy_0
G1 Z0.200 ; for object exclusion
G1 E-2 F4800
G1 X32.694 Y30.871 F21000
G1 Z.6
G1 Z.2
G1 E2 F4800
;TYPE:Inner wall
;WIDTH:0.5
;HEIGHT:0.2
G1 F3000
G1 X30.61 Y38.081 E.27099
G1 X30.049 Y44.784 E.24287
G1 X23.64 Y44.784 E.23141
G1 X23.839 Y40.82 E.14332
G1 X24.64 Y35.647 E.18901
G1 X26.009 Y30.816 E.18128
G1 X27.975 Y26.518 E.17066
G1 X30.567 Y22.913 E.16032
G1 X33.817 Y20.148 E.15407
G1 X37.772 Y18.383 E.15636
G1 X42.518 Y17.79 E.17268
G1 X47.294 Y18.383 E.17377
G1 X51.258 Y20.148 E.15668
G1 X54.508 Y22.913 E.15405
G1 X57.1 Y26.518 E.16032
G1 X59.066 Y30.816 E.17066
G1 X60.435 Y35.647 E.18128
G1 X61.236 Y40.82 E.18901
G1 X61.435 Y44.784 E.14332
G1 X54.994 Y44.784 E.23258
G1 X54.445 Y37.741 E.25508
G1 X52.347 Y30.519 E.27153
G1 X50.636 Y27.586 E.12259
G1 X48.452 Y25.305 E.11403
G1 X45.738 Y23.828 E.11154
G1 X42.514 Y23.338 E.11775
G1 X39.285 Y23.857 E.1181
G1 X36.569 Y25.417 E.1131
G1 X34.394 Y27.801 E.1165
G1 X32.706 Y30.828 E.12515
G1 X32.705 Y30.832 E.00014
G1 X33.13 Y31.005 F21000
;TYPE:Outer wall
G1 F3000
G1 X31.062 Y38.164 E.26905
G1 X30.469 Y45.241 E.25641
G1 X23.159 Y45.241 E.26395
G1 X23.384 Y40.773 E.16153
G1 X24.193 Y35.549 E.19087
G1 X25.579 Y30.658 E.18355
G1 X27.578 Y26.287 E.17353
G1 X30.229 Y22.601 E.16394
G1 X33.571 Y19.757 E.15845
G1 X37.648 Y17.938 E.16118
G1 X42.517 Y17.33 E.17719
G1 X47.417 Y17.938 E.17828
G1 X51.504 Y19.757 E.16151
G1 X54.846 Y22.601 E.15844
G1 X57.497 Y26.287 E.16394
G1 X59.496 Y30.658 E.17353
G1 X60.882 Y35.549 E.18356
G1 X61.691 Y40.773 E.19087
G1 X61.916 Y45.241 E.16153
G1 X54.571 Y45.241 E.2652
G1 X53.993 Y37.823 E.26865
G1 X51.923 Y30.701 E.2678
G1 X50.268 Y27.864 E.1186
G1 X48.171 Y25.673 E.10951
G1 X45.59 Y24.268 E.10608
G1 X42.516 Y23.801 E.11227
G1 X39.44 Y24.295 E.11249
G1 X36.858 Y25.778 E.1075
G1 X34.767 Y28.07 E.11202
G1 X33.15 Y30.971 E.11991
G1 E-1.6 F4800
;WIPE_START
G1 F3000
G1 X32.592 Y32.891 E-.4
;WIPE_END
G1 X39.186 Y29.047 Z.6 F21000
G1 X52.431 Y21.325 Z.6
G1 Z.2
G1 E2 F4800
;TYPE:Bottom surface
;WIDTH:0.505564
G1 F3000
G1 X54.259 Y23.153 E.09448
G1 X55.933 Y25.482 E.10483
G1 X50.746 Y20.295 E.2681
G1 X49.567 Y19.77 E.04717
G1 X57.067 Y27.271 E.38765
G1 X57.619 Y28.476 E.04845
G1 X48.388 Y19.245 E.47709
G1 X47.208 Y18.721 E.04717
G1 X58.17 Y29.682 E.56653
G1 X58.722 Y30.888 E.04845
G1 X46.459 Y18.625 E.63378
G1 X45.712 Y18.532 E.02751
G1 X58.992 Y31.812 E.68635
G1 X59.25 Y32.725 E.03468
G1 X44.965 Y18.44 E.73833
G1 X44.218 Y18.347 E.02751
G1 X59.509 Y33.638 E.79031
G1 X59.768 Y34.551 E.03468
G1 X43.471 Y18.254 E.84229
G1 X42.724 Y18.161 E.02751
G1 X60.027 Y35.464 E.89427
G1 X60.099 Y35.72 E.00971
G1 X60.185 Y36.277 E.02061
G1 X42.096 Y18.188 E.93489
G1 X41.515 Y18.261 E.02142
G1 X47.831 Y24.578 E.32646
G1 X48.662 Y25.03 E.03458
G1 X50.911 Y27.379 E.11885
G1 X51.302 Y28.048 E.02833
G1 X60.305 Y37.052 E.46532
G1 X60.425 Y37.826 E.02863
G1 X52.218 Y29.619 E.42417
G1 X52.664 Y30.383 E.03234
G1 X52.802 Y30.856 E.01802
G1 X60.545 Y38.6 E.40021
G1 X60.665 Y39.374 E.02863
G1 X53.07 Y31.779 E.39255
G1 X53.338 Y32.701 E.0351
G1 X60.785 Y40.148 E.3849
G1 X60.897 Y40.915 E.02832
G1 X53.606 Y33.623 E.37686
G1 X53.874 Y34.546 E.0351
G1 X60.932 Y41.604 E.36479
G1 X60.967 Y42.293 E.02521
G1 X54.142 Y35.468 E.35273
G1 X54.41 Y36.39 E.0351
G1 X61.001 Y42.982 E.34067
G1 X61.036 Y43.671 E.02521
G1 X54.678 Y37.313 E.32861
G1 X54.784 Y37.679 E.01395
G1 X54.818 Y38.107 E.01567
G1 X61.071 Y44.36 E.32317
G1 X61.075 Y44.441 E.00299
G1 X60.498 Y44.441 E.02107
G1 X54.873 Y38.816 E.29073
G1 X54.928 Y39.526 E.02601
G1 X59.844 Y44.441 E.25406
G1 X59.19 Y44.441 E.02391
G1 X54.983 Y40.235 E.21739
G1 X55.039 Y40.945 E.02601
G1 X58.535 Y44.441 E.18072
G1 X57.881 Y44.441 E.02391
G1 X55.094 Y41.654 E.14405
G1 X55.149 Y42.364 E.02601
G1 X57.227 Y44.441 E.10738
G1 X56.572 Y44.441 E.02391
G1 X55.204 Y43.073 E.07071
G1 X55.26 Y43.783 E.02601
G1 X56.124 Y44.647 E.04467
G1 E-1.6 F4800
;WIPE_START
G1 F3000
G1 X55.26 Y43.783 E-.24446
G1 X55.204 Y43.073 E-.14233
G1 X55.251 Y43.12 E-.01321
;WIPE_END
G1 X52.157 Y36.143 Z.6 F21000
G1 X46.909 Y24.31 Z.6
G1 Z.2
G1 E2 F4800
G1 F3000
G1 X40.933 Y18.334 E.30887
G1 X40.352 Y18.406 E.02142
G1 X45.371 Y23.426 E.25943
G1 X44.6 Y23.309 E.02852
G1 X39.77 Y18.479 E.24961
G1 X39.188 Y18.552 E.02142
G1 X43.828 Y23.191 E.2398
G1 X43.056 Y23.074 E.02852
G1 X38.607 Y18.624 E.22998
G1 X38.025 Y18.697 E.02142
G1 X42.346 Y23.018 E.22334
G1 X41.782 Y23.109 E.02087
G1 X37.537 Y18.863 E.21942
G1 X37.085 Y19.065 E.0181
G1 X41.219 Y23.199 E.21366
G1 X40.655 Y23.29 E.02087
G1 X36.632 Y19.267 E.2079
G1 X36.18 Y19.469 E.0181
G1 X40.091 Y23.38 E.20215
G1 X39.527 Y23.47 E.02087
G1 X35.727 Y19.671 E.19639
G1 X35.275 Y19.873 E.0181
G1 X39.017 Y23.615 E.19342
G1 X38.602 Y23.854 E.01751
G1 X34.823 Y20.074 E.19532
G1 X34.37 Y20.276 E.0181
G1 X38.186 Y24.092 E.19723
G1 X37.771 Y24.331 E.01751
G1 X33.936 Y20.496 E.19818
G1 X33.583 Y20.797 E.01696
G1 X37.355 Y24.57 E.19498
G1 X36.94 Y24.809 E.01751
G1 X33.229 Y21.098 E.19177
G1 X32.876 Y21.399 E.01696
G1 X36.524 Y25.047 E.18857
G1 X36.351 Y25.147 E.00728
G1 X36.169 Y25.347 E.00989
G1 X32.522 Y21.7 E.18849
G1 X32.169 Y22 E.01696
G1 X35.857 Y25.689 E.19063
G1 X35.545 Y26.031 E.01693
G1 X31.815 Y22.301 E.19277
G1 X31.462 Y22.602 E.01696
G1 X35.233 Y26.373 E.19491
G1 X34.921 Y26.715 E.01693
G1 X31.108 Y22.903 E.19705
G1 X30.821 Y23.147 E.01377
G1 X30.77 Y23.218 E.00323
G1 X34.608 Y27.057 E.19841
G1 X34.296 Y27.4 E.01693
G1 X30.496 Y23.599 E.19642
G1 X30.222 Y23.98 E.01713
G1 X34.017 Y27.774 E.19611
G1 X33.782 Y28.194 E.01758
G1 X29.948 Y24.36 E.19815
G1 X29.675 Y24.741 E.01713
G1 X33.548 Y28.614 E.20019
G1 X33.314 Y29.034 E.01758
G1 X29.401 Y25.121 E.20222
G1 X29.127 Y25.502 E.01713
G1 X33.08 Y29.454 E.20426
G1 X32.845 Y29.874 E.01758
G1 X28.854 Y25.883 E.2063
G1 X28.58 Y26.263 E.01713
G1 X32.611 Y30.294 E.20834
G1 X32.381 Y30.718 E.01763
G1 X28.306 Y26.644 E.21058
G1 X28.093 Y27.084 E.01789
G1 X32.234 Y31.226 E.21405
G1 X32.087 Y31.733 E.01931
G1 X27.887 Y27.533 E.21708
G1 X27.682 Y27.982 E.01804
G1 X31.941 Y32.241 E.22011
G1 X31.794 Y32.749 E.01931
G1 X27.477 Y28.431 E.22314
G1 X27.271 Y28.88 E.01804
G1 X31.647 Y33.256 E.22618
G1 X31.501 Y33.764 E.01931
G1 X27.066 Y29.329 E.22921
G1 X26.861 Y29.778 E.01804
G1 X31.354 Y34.271 E.23224
G1 X31.207 Y34.779 E.01931
G1 X26.655 Y30.227 E.23527
G1 X26.45 Y30.676 E.01804
G1 X31.061 Y35.287 E.2383
G1 X30.914 Y35.794 E.01931
G1 X26.27 Y31.151 E.24001
G1 X26.126 Y31.66 E.01937
G1 X30.767 Y36.302 E.23989
G1 X30.621 Y36.81 E.01931
G1 X25.981 Y32.17 E.23978
G1 X25.837 Y32.68 E.01937
G1 X30.474 Y37.317 E.23966
G1 X30.327 Y37.825 E.01931
G1 X25.693 Y33.19 E.23955
G1 X25.548 Y33.7 E.01937
G1 X30.24 Y38.392 E.24251
G1 X30.19 Y38.996 E.02214
G1 X25.404 Y34.209 E.24736
G1 X25.259 Y34.719 E.01937
G1 X30.139 Y39.599 E.25221
G1 X30.089 Y40.203 E.02214
G1 X25.115 Y35.229 E.25707
G1 X24.972 Y35.741 E.01942
G1 X30.038 Y40.807 E.26181
G1 X29.987 Y41.41 E.02214
G1 X24.885 Y36.308 E.26373
G1 X24.797 Y36.874 E.02095
G1 X29.937 Y42.014 E.26566
G1 X29.886 Y42.618 E.02214
G1 X24.709 Y37.441 E.26758
G1 X24.621 Y38.007 E.02095
G1 X29.836 Y43.222 E.2695
G1 X29.785 Y43.825 E.02214
G1 X24.534 Y38.574 E.27142
G1 X24.446 Y39.14 E.02095
G1 X29.734 Y44.441 E.27363
G1 X29.093 Y44.441 E.02342
G1 X24.358 Y39.707 E.24469
G1 X24.271 Y40.273 E.02095
G1 X28.438 Y44.441 E.21541
G1 X27.784 Y44.441 E.02391
G1 X24.183 Y40.84 E.18613
G1 X24.15 Y41.461 E.02274
G1 X27.13 Y44.441 E.15401
G1 X26.476 Y44.441 E.02391
G1 X24.119 Y42.084 E.12181
G1 X24.087 Y42.707 E.0228
G1 X25.821 Y44.441 E.08962
G1 X25.167 Y44.441 E.02391
G1 X24.056 Y43.33 E.05742
G1 X24.025 Y43.953 E.0228
G1 X24.719 Y44.647 E.03585
G1 E-1.6 F4800
;WIPE_START
G1 F3000
G1 X24.025 Y43.953 E-.19622
G1 X24.056 Y43.33 E-.12475
G1 X24.336 Y43.61 E-.07903
;WIPE_END
G1 X31.131 Y40.135 Z.6 F21000
G1 X52.124 Y29.399 Z.6
G1 Z.2
G1 E2 F4800
;TYPE:Gap infill
;WIDTH:0.271744
G1 F3000
G1 X51.982 Y29.215 E.0042
;WIDTH:0.222037
G1 X51.84 Y29.031 E.00329
;WIDTH:0.17233
G1 X51.698 Y28.848 E.00237
;WIDTH:0.147476
G1 X51.556 Y28.664 E.00192
G1 E-1.62835 F4800
;WIPE_START
G1 F3000
G1 X51.698 Y28.848 E-.37165
;WIPE_END
G1 X58.053 Y29.206 Z.6 F21000
G1 Z.2
G1 E2 F4800
;WIDTH:0.118897
G1 F3000
G1 X57.965 Y29.08 E.00092
;WIDTH:0.161151
G1 X57.878 Y28.953 E.00144
;WIDTH:0.203406
G1 X57.79 Y28.827 E.00195
;WIDTH:0.224534
G1 X57.702 Y28.7 E.00221
G1 E-1.75359 F4800
;WIPE_START
G1 F3000
G1 X57.79 Y28.827 E-.24641
;WIPE_END
G1 X56.951 Y26.795 Z.6 F21000
G1 Z.2
G1 E2 F4800
;WIDTH:0.122227
G1 F3000
G1 X56.856 Y26.659 E.00104
;WIDTH:0.16935
G1 X56.652 Y26.419 E.00315
;WIDTH:0.21468
G1 X56.447 Y26.178 E.00428
;WIDTH:0.260009
G1 X56.243 Y25.937 E.00542
;WIDTH:0.282674
G1 X56.038 Y25.697 E.00598
G1 E-1.6 F4800
;WIPE_START
G1 F3000
G1 X56.243 Y25.937 E-.4
;WIPE_END
G1 X52.316 Y21.44 Z.6 F21000
G1 Z.2
G1 E2 F4800
;WIDTH:0.157121
G1 F3000
G1 X51.92 Y21.074 E.00487
;WIDTH:0.137337
G1 X51.523 Y20.708 E.00402
G1 E-1.6 F4800
;WIPE_START
G1 F3000
G1 X51.92 Y21.074 E-.4
;WIPE_END
G1 X49.342 Y19.688 Z.6 F21000
G1 Z.2
G1 E2 F4800
;WIDTH:0.243126
G1 F3000
G1 X49.22 Y19.604 E.00235
;WIDTH:0.201596
G1 X49.098 Y19.52 E.00186
;WIDTH:0.160065
G1 X48.975 Y19.436 E.00137
;WIDTH:0.1393
G1 X48.853 Y19.352 E.00113
G1 E-1.76257 F4800
;WIPE_START
G1 F3000
G1 X48.975 Y19.436 E-.23743
;WIPE_END
G1 X47.267 Y24.374 Z.6 F21000
G1 Z.2
G1 E2 F4800
;WIDTH:0.113146
G1 F3000
G1 X47.146 Y24.284 E.00084
;WIDTH:0.128522
G1 X47.026 Y24.193 E.00102
G1 E-1.75895 F4800
;WIPE_START
G1 F3000
G1 X47.146 Y24.284 E-.24105
;WIPE_END
G1 X46.9 Y31.912 Z.6 F21000
G1 X45.81 Y65.596 Z.6
G1 Z.2
G1 E2 F4800
;TYPE:Inner wall
;WIDTH:0.5
G1 F3000
G1 X41.758 Y59.575 E.26205
G1 X46.09 Y56.645 E.18885
G1 X50.082 Y62.633 E.25984
G1 X52.349 Y58.6 E.16704
G1 X54.445 Y51.345 E.27265
G1 X54.759 Y47.498 E.13936
G1 X61.292 Y47.498 E.2359
G1 X61.236 Y48.617 E.04045
G1 X60.435 Y53.78 E.18865
G1 X59.066 Y58.617 E.18148
G1 X57.099 Y62.931 E.17118
G1 X54.507 Y66.551 E.16076
G1 X53.335 Y67.55 E.0556
G1 X57.682 Y74.092 E.28362
G1 X53.493 Y77.009 E.18432
G1 X48.995 Y70.327 E.29083
G1 X47.294 Y71.084 E.06724
G1 X42.518 Y71.677 E.17377
G1 X37.772 Y71.084 E.17268
G1 X33.817 Y69.32 E.15635
G1 X30.568 Y66.55 E.15416
G1 X27.975 Y62.931 E.16076
G1 X26.009 Y58.617 E.17118
G1 X24.64 Y53.78 E.18148
G1 X23.839 Y48.617 E.18865
G1 X23.782 Y47.498 E.04045
G1 X30.272 Y47.498 E.23431
G1 X30.374 Y48.755 E.04554
G1 X30.61 Y51.687 E.10619
G1 X32.707 Y58.925 E.27209
G1 X34.402 Y61.873 E.12276
G1 X36.582 Y64.161 E.11413
G1 X39.296 Y65.639 E.11158
G1 X42.521 Y66.129 E.11777
G1 X45.771 Y65.602 E.11887
G1 X45.033 Y65.259 F21000
;TYPE:Outer wall
G1 F3000
G1 X41.124 Y59.452 E.25274
G1 X46.215 Y56.008 E.22193
G1 X50.049 Y61.759 E.24953
G1 X51.924 Y58.422 E.13821
G1 X53.993 Y51.262 E.26909
G1 X54.338 Y47.041 E.15292
G1 X61.773 Y47.041 E.26847
G1 X61.691 Y48.664 E.05867
G1 X60.882 Y53.878 E.19052
G1 X59.496 Y58.774 E.18374
G1 X57.497 Y63.161 E.17404
G1 X54.846 Y66.862 E.16438
G1 X53.94 Y67.634 E.04298
G1 X58.31 Y74.212 E.28512
G1 X53.373 Y77.649 E.21723
G1 X48.83 Y70.901 E.29373
G1 X47.417 Y71.53 E.05584
G1 X42.517 Y72.138 E.17828
G1 X37.648 Y71.53 E.17719
G1 X33.571 Y69.711 E.16118
G1 X30.229 Y66.862 E.15856
G1 X27.578 Y63.161 E.16438
G1 X25.579 Y58.774 E.17404
G1 X24.193 Y53.878 E.18374
G1 X23.384 Y48.664 E.19051
G1 X23.302 Y47.041 E.05867
G1 X30.694 Y47.041 E.2669
G1 X30.829 Y48.719 E.06077
G1 X31.062 Y51.604 E.10452
G1 X33.131 Y58.745 E.26844
G1 X34.77 Y61.597 E.11879
G1 X36.864 Y63.794 E.10955
G1 X39.444 Y65.199 E.1061
G1 X42.519 Y65.667 E.11228
G1 X44.993 Y65.265 E.09051
G1 E-1.6 F4800
;WIPE_START
G1 F3000
G1 X43.885 Y63.6 E-.4
;WIPE_END
G1 X47.396 Y58.851 Z.6 F21000
G1 Z.2
G1 E2 F4800
;TYPE:Bottom surface
;WIDTH:0.50235
G1 F3000
G1 X45.8 Y57.255 E.08193
G1 X45.412 Y57.517 E.01698
G1 X48.695 Y60.8 E.16849
G1 E-1.6 F4800
;WIPE_START
G1 F3000
G1 X47.281 Y59.386 E-.4
;WIPE_END
G1 X52.931 Y54.255 Z.6 F21000
G1 X60.22 Y47.635 Z.6
G1 Z.2
G1 E2 F4800
G1 F3000
G1 X60.907 Y48.322 E.03526
G1 X60.894 Y48.582 E.00944
G1 X60.844 Y48.908 E.01198
G1 X59.776 Y47.841 E.05478
G1 X59.127 Y47.841 E.02358
G1 X60.756 Y49.471 E.08365
G1 X60.669 Y50.033 E.02066
G1 X58.477 Y47.841 E.11252
G1 X57.827 Y47.841 E.02358
G1 X60.582 Y50.596 E.14138
G1 X60.495 Y51.158 E.02066
G1 X57.177 Y47.841 E.17025
G1 X56.528 Y47.841 E.02358
G1 X60.407 Y51.721 E.19912
G1 X60.32 Y52.283 E.02066
G1 X55.878 Y47.841 E.22799
G1 X55.228 Y47.841 E.02358
G1 X60.233 Y52.845 E.25685
G1 X60.145 Y53.408 E.02066
G1 X55.037 Y48.3 E.26216
G1 X54.988 Y48.901 E.02187
G1 X60.032 Y53.944 E.25885
G1 X59.889 Y54.451 E.0191
G1 X54.939 Y49.501 E.25401
G1 X54.89 Y50.102 E.02187
