; HEADER_BLOCK_START
; generated by AnycubicSlicerNext 1.3.5.2 on 2025-06-06 at 02:45:20
; total layer number: 5
; filament_density: 1.23,1.23
; filament_diameter: 1.75,1.75
; max_z_height: 1.00
; exclude_object: 1
; model_instances: 1
; source_info: {"models":[{"file_source":0,"mo_file_id":-1,"name":"SF2_Flaps_Special_Flaps_v2004_id_0_copy_0"}],"models_from":0,"plate_index":1,"slice_paras_process":1,"software_version":"AnycubicSlicerNext 1.3.5.2 20250529154022"}
; HEADER_BLOCK_END

; THUMBNAIL_BLOCK_START
; THUMBNAIL_BLOCK_END

; THUMBNAIL_BLOCK_START
; THUMBNAIL_BLOCK_END

; external perimeters extrusion width = 0.42mm
; perimeters extrusion width = 0.45mm
; infill extrusion width = 0.45mm
; solid infill extrusion width = 0.42mm
; top infill extrusion width = 0.42mm
; first layer extrusion width = 0.50mm

; external perimeters extrusion width = 0.42mm
; perimeters extrusion width = 0.45mm
; infill extrusion width = 0.45mm
; solid infill extrusion width = 0.42mm
; top infill extrusion width = 0.42mm
; first layer extrusion width = 0.50mm

; EXECUTABLE_BLOCK_START
EXCLUDE_OBJECT_DEFINE NAME=SF2_Flaps_Special_Flaps_v2004_id_0_copy_0 CENTER=127.5,127.5 POLYGON=[[14.4,52.7422],[17.2955,20.2136],[180.896,20.2136],[237.696,92.0722],[240.6,124.601],[240.6,202.258],[237.696,234.786],[17.2955,234.786],[14.4,202.258],[14.4,52.7422]]
M201 X20000 Y20000 Z500 E5000 ; sets machine_max_acceleration_x, y, z, e (mm/sec^2)
M203 X600 Y600 Z10 E80 ; sets machine_max_speed_x, y, z, e (mm/sec)
M204 P20000 R20000 T20000 ; sets machine_max_acceleration(mm/sec^2) M204 P[print] R[retract] T[travel]
M205 X20.00 Y20.00 Z3.00 E5.00 ; sets the jerk limits, mm/sec
;TYPE:Custom
G9111 bedTemp=70 extruderTemp=230
M117
M900 K0.051
; print_bed_min = 0,0
; print_bed_max = 255,255
; print_bed_size = 255,255
; first_layer_print_min = 12.3999,18.2135
; first_layer_print_max = 242.6,236.786
; first_layer_print_size = 230.2,218.573
G90
G21
M83 ; use relative distances for extrusion
; FLUSH_START
;;; M400 P0
T0 ; change extruder
; 1
;;; G1 E-2 F2400
;;; G1 Z5 F600
;;; G1 X271.5 F12000
;;; G1 E-5 F600
;;; G1 X278 F600
;;; M400 P3530
;;; G1 E-1 F600
;;; G1 Z7  F600
;;; G1 X278 F18000
;;; G1 X271.5 F1200
;;; G1 E2 F300
;;; M400 P31050
;;; M400 P17510
; 2
;;; G1 X278 F18000
;;; G1 X271.5 F1200
;;; G1 E2 F300
;;; M400 P0
;;; G1 X250 F1200
;;; M400 P0
;;; G1 X278 F18000
;;; G1 X271.5 F1200
;;; G1 E2 F300
;;; M400 P0
; 3.1
;;; M106 S255
;;; G1 X36 Y260 Z-0.8 F9600
;;; G1 X50 Y260 Z1 F9600
;;; G1 X86 Y260 Z1 F9600
;;; G1 X90 Y260 Z-0.8 F9600
;;; G1 X90 Y259 Z-0.8 F9600
;;; G1 X86 Y259 Z1 F9600
;;; G1 X50 Y259 Z1 F9600
;;; G1 X36 Y259 Z-0.8 F9600
; 3.2
;;; G1 X36 Y260 Z-0.8 F9600
;;; G1 X50 Y260 Z1 F9600
;;; G1 X86 Y260 Z1 F9600
;;; G1 X90 Y260 Z-0.8 F9600
;;; G1 X90 Y259 Z-0.8 F9600
;;; G1 X86 Y259 Z1 F9600
;;; G1 X50 Y259 Z1 F9600
;;; G1 X36 Y259 Z-0.8 F9600
; 3.3
;;; G1 X36 Y260 Z-0.8 F9600
;;; G1 X50 Y260 Z1 F9600
;;; G1 X86 Y260 Z1 F9600
;;; G1 X90 Y260 Z-0.8 F9600
;;; G1 X90 Y259 Z-0.8 F9600
;;; G1 X86 Y259 Z1 F9600
;;; G1 X50 Y259 Z1 F9600
;;; G1 X36 Y259 Z-0.8 F9600
;;; G1 Z0
;;; M400 P0
; FLUSH_END
;_FORCE_RESUME_FAN_SPEED
; filament start gcode
G1 Z.2 F21000
M106 S0
;LAYER_CHANGE
;Z:0.2
;HEIGHT:0.2
; BEFORE_LAYER_CHANGE 0 @ 0.2mm
; AFTER_LAYER_CHANGE 0 @ 0.2mm
M204 P500
SET_VELOCITY_LIMIT SQUARE_CORNER_VELOCITY=9
; printing object "SF2_Flaps_Special_Flaps_v2004" id:0 copy 0
EXCLUDE_OBJECT_START NAME=SF2_Flaps_Special_Flaps_v2004_id_0_copy_0
G1 Z0.200 ; for object exclusion
G1 E-2 F4800
G1 X146.042 Y45.927 F21000
G1 Z.6
G1 Z.2
G1 E2 F4800
;TYPE:Inner wall
;WIDTH:0.5
;HEIGHT:0.2
G1 F3000
G1 X143.707 Y46.467 E.08653
G1 X141.361 Y45.957 E.08669
G1 X139.648 Y44.43 E.08284
G1 X138.556 Y42.02 E.09556
G1 X138.181 Y38.938 E.11209
G1 X138.55 Y35.989 E.10729
G1 X139.631 Y33.579 E.09538
G1 X141.341 Y32.011 E.08379
G1 X143.715 Y31.486 E.08777
G1 X143.762 Y31.496 E.00173
G1 X146.017 Y31.971 E.08322
G1 X147.721 Y33.414 E.08063
G1 X148.822 Y35.767 E.09379
G1 X149.202 Y38.934 E.11518
G1 X148.832 Y41.845 E.10595
G1 X147.747 Y44.302 E.09697
G1 X146.071 Y45.9 E.08361
G1 X146.267 Y46.345 F21000
;TYPE:Outer wall
G1 F3000
G1 X143.71 Y46.935 E.09475
G1 X141.146 Y46.378 E.09473
G1 X139.272 Y44.707 E.09067
G1 X138.11 Y42.144 E.10158
G1 X137.72 Y38.937 E.11666
G1 X138.105 Y35.865 E.1118
G1 X139.252 Y33.306 E.10125
G1 X141.123 Y31.591 E.09163
G1 X143.712 Y31.018 E.09576
G1 X143.856 Y31.049 E.00529
G1 X146.224 Y31.547 E.0874
G1 X148.093 Y33.13 E.08841
G1 X149.267 Y35.64 E.10005
G1 X149.662 Y38.936 E.11987
G1 X149.277 Y41.969 E.11039
G1 X148.129 Y44.57 E.10266
G1 X146.296 Y46.317 E.09142
G1 E-1.6 F4800
;WIPE_START
G1 F3000
G1 X144.351 Y46.782 E-.4
;WIPE_END
G1 X150.865 Y42.804 Z.6 F21000
G1 X179.474 Y25.332 Z.6
G1 Z.2
G1 E2 F4800
;TYPE:Inner wall
G1 F3000
G1 X171.305 Y25.332 E.29495
G1 X152.176 Y54.335 E1.25446
G1 X131.702 Y54.335 E.73922
G1 X131.702 Y42.731 E.41897
G1 X131.939 Y42.698 E.00861
G1 X132.664 Y45.239 E.09541
G1 X134.235 Y48.127 E.11871
G1 X136.561 Y50.512 E.1203
G1 X139.715 Y52.105 E.12755
G1 X143.713 Y52.628 E.14558
G1 X147.769 Y52.084 E.14778
G1 X150.931 Y50.425 E.12891
G1 X153.229 Y47.972 E.12138
G1 X154.774 Y45.026 E.1201
G1 X155.915 Y38.968 E.22256
G1 X155.62 Y35.721 E.11772
G1 X154.739 Y32.576 E.11794
G1 X153.181 Y29.713 E.11768
G1 X150.855 Y27.377 E.11903
G1 X147.702 Y25.833 E.12675
G1 X143.708 Y25.326 E.14537
G1 X139.708 Y25.871 E.14578
G1 X136.553 Y27.528 E.12866
G1 X134.232 Y29.978 E.12187
G1 X132.664 Y32.896 E.11959
G1 X131.938 Y35.394 E.09391
G1 X131.702 Y35.36 E.00859
G1 X131.702 Y21.021 E.51774
G1 X180.089 Y21.021 E1.74703
G1 X180.089 Y54.335 E1.20286
G1 X160.345 Y54.335 E.71285
G1 X179.452 Y25.365 E1.25302
G1 E-1.6 F4800
;WIPE_START
G1 F3000
G1 X177.452 Y25.357 E-.4
;WIPE_END
G1 X171.726 Y30.403 Z.6 F21000
G1 X147.628 Y51.641 Z.6
G1 Z.2
G1 E2 F4800
;TYPE:Outer wall
G1 F3000
G1 X150.65 Y50.056 E.12321
G1 X152.853 Y47.705 E.11635
G1 X154.337 Y44.874 E.11539
G1 X155.454 Y38.946 E.2178
G1 X155.169 Y35.804 E.11391
G1 X154.313 Y32.749 E.11456
G1 X152.811 Y29.989 E.11344
G1 X150.585 Y27.754 E.1139
G1 X147.57 Y26.277 E.12124
G1 X143.71 Y25.787 E.14045
G1 X140.834 Y26.179 E.10481
G1 X139.849 Y26.313 E.03589
G1 X136.833 Y27.898 E.12302
G1 X134.605 Y30.248 E.11693
G1 X133.09 Y33.07 E.11564
G1 X132.219 Y36.063 E.11255
G1 X131.929 Y38.936 E.10425
G1 X132.219 Y42.015 E.11166
G1 X133.09 Y45.065 E.11452
G1 X134.607 Y47.853 E.1146
G1 X136.836 Y50.139 E.11527
G1 X139.851 Y51.662 E.12199
G1 X143.712 Y52.167 E.14058
G1 X147.589 Y51.647 E.14123
G1 E-1.6 F4800
;WIPE_START
G1 F3000
G1 X149.363 Y50.725 E-.4
;WIPE_END
G1 X155.173 Y45.774 Z.6 F21000
G1 X178.625 Y25.789 Z.6
G1 Z.2
G1 E2 F4800
G1 F3000
G1 X171.551 Y25.789 E.25542
G1 X152.422 Y54.792 E1.25446
G1 X131.245 Y54.792 E.76461
G1 X131.245 Y53.908 E.03192
G1 X128.35 Y53.908 E.10455
G1 X128.35 Y53.276 E.02282
G1 X131.245 Y53.276 E.10455
G1 X131.245 Y20.564 E1.18112
G1 X180.546 Y20.564 E1.78003
G1 X180.546 Y53.276 E1.18112
G1 X183.45 Y53.276 E.10487
G1 X183.45 Y53.908 E.02282
G1 X180.546 Y53.908 E.10487
G1 X180.546 Y54.792 E.03192
G1 X159.496 Y54.792 E.76001
G1 X178.603 Y25.822 E1.25302
G1 X179.502 Y25.538 F21000
;TYPE:Bottom surface
;WIDTH:0.502503
G1 F3000
G1 X179.746 Y25.781 E.01249
G1 X179.746 Y26.431 E.0236
G1 X179.393 Y26.078 E.01813
G1 X179.134 Y26.469 E.01703
G1 X179.746 Y27.081 E.03139
G1 X179.746 Y27.731 E.0236
G1 X178.876 Y26.861 E.04466
G1 X178.618 Y27.253 E.01703
G1 X179.746 Y28.381 E.05792
G1 X179.746 Y29.031 E.0236
G1 X178.359 Y27.644 E.07118
G1 X178.101 Y28.036 E.01703
G1 X179.746 Y29.681 E.08444
G1 X179.746 Y30.331 E.0236
G1 X177.843 Y28.428 E.0977
G1 X177.584 Y28.819 E.01703
G1 X179.746 Y30.981 E.11096
G1 X179.746 Y31.631 E.0236
G1 X177.326 Y29.211 E.12423
G1 X177.068 Y29.603 E.01703
G1 X179.746 Y32.28 E.13749
G1 X179.746 Y32.93 E.0236
G1 X176.81 Y29.994 E.15075
G1 X176.551 Y30.386 E.01703
G1 X179.746 Y33.58 E.16401
G1 X179.746 Y34.23 E.0236
G1 X176.293 Y30.778 E.17727
G1 X176.035 Y31.169 E.01703
G1 X179.746 Y34.88 E.19053
G1 X179.746 Y35.53 E.0236
G1 X175.776 Y31.561 E.2038
G1 X175.518 Y31.952 E.01703
G1 X179.746 Y36.18 E.21706
G1 X179.746 Y36.83 E.0236
G1 X175.26 Y32.344 E.23032
G1 X175.001 Y32.736 E.01703
G1 X179.746 Y37.48 E.24358
G1 X179.746 Y38.13 E.0236
G1 X174.743 Y33.127 E.25684
G1 X174.485 Y33.519 E.01703
G1 X179.746 Y38.78 E.2701
G1 X179.746 Y39.43 E.0236
G1 X174.226 Y33.911 E.28337
G1 X173.968 Y34.302 E.01703
G1 X179.746 Y40.08 E.29663
G1 X179.746 Y40.73 E.0236
G1 X173.71 Y34.694 E.30989
G1 X173.452 Y35.086 E.01703
G1 X179.746 Y41.38 E.32315
G1 X179.746 Y42.03 E.0236
G1 X173.193 Y35.477 E.33641
G1 X172.935 Y35.869 E.01703
G1 X179.746 Y42.68 E.34967
G1 X179.746 Y43.33 E.0236
G1 X172.677 Y36.261 E.36293
G1 X172.418 Y36.652 E.01703
G1 X179.746 Y43.98 E.3762
G1 X179.746 Y44.63 E.0236
G1 X172.16 Y37.044 E.38946
G1 X171.902 Y37.435 E.01703
G1 X179.746 Y45.279 E.40272
G1 X179.746 Y45.929 E.0236
G1 X171.643 Y37.827 E.41598
G1 X171.385 Y38.219 E.01703
G1 X179.746 Y46.579 E.42924
G1 X179.746 Y47.229 E.0236
G1 X171.127 Y38.61 E.4425
G1 X170.869 Y39.002 E.01703
G1 X179.746 Y47.879 E.45577
G1 X179.746 Y48.529 E.0236
G1 X170.61 Y39.394 E.46903
G1 X170.352 Y39.785 E.01703
G1 X179.746 Y49.179 E.48229
G1 X179.746 Y49.829 E.0236
G1 X170.094 Y40.177 E.49555
G1 X169.835 Y40.569 E.01703
G1 X179.746 Y50.479 E.50881
G1 X179.746 Y51.129 E.0236
G1 X169.577 Y40.96 E.52207
G1 X169.319 Y41.352 E.01703
G1 X179.746 Y51.779 E.53534
G1 X179.746 Y52.429 E.0236
G1 X169.06 Y41.744 E.5486
G1 X168.802 Y42.135 E.01703
G1 X179.746 Y53.079 E.56186
G1 X179.746 Y53.729 E.0236
G1 X168.544 Y42.527 E.57512
G1 X168.286 Y42.919 E.01703
G1 X179.359 Y53.992 E.56855
G1 X178.709 Y53.992 E.0236
G1 X168.027 Y43.31 E.54844
G1 X167.769 Y43.702 E.01703
G1 X178.06 Y53.992 E.52833
G1 X177.41 Y53.992 E.0236
G1 X167.511 Y44.093 E.50823
G1 X167.252 Y44.485 E.01703
G1 X176.76 Y53.992 E.48812
G1 X176.11 Y53.992 E.0236
G1 X166.994 Y44.877 E.46801
G1 X166.736 Y45.268 E.01703
G1 X175.46 Y53.992 E.4479
G1 X174.81 Y53.992 E.0236
G1 X166.477 Y45.66 E.4278
G1 X166.219 Y46.052 E.01703
G1 X174.16 Y53.992 E.40769
G1 X173.51 Y53.992 E.0236
G1 X165.961 Y46.443 E.38758
G1 X165.702 Y46.835 E.01703
G1 X172.86 Y53.992 E.36747
G1 X172.21 Y53.992 E.0236
G1 X165.444 Y47.227 E.34737
G1 X165.186 Y47.618 E.01703
G1 X171.56 Y53.992 E.32726
G1 X170.91 Y53.992 E.0236
G1 X164.928 Y48.01 E.30715
G1 X164.669 Y48.402 E.01703
G1 X170.26 Y53.992 E.28704
G1 X169.61 Y53.992 E.0236
G1 X164.411 Y48.793 E.26694
G1 X164.153 Y49.185 E.01703
G1 X168.96 Y53.992 E.24683
G1 X168.31 Y53.992 E.0236
G1 X163.894 Y49.576 E.22672
G1 X163.636 Y49.968 E.01703
G1 X167.66 Y53.992 E.20661
G1 X167.01 Y53.992 E.0236
G1 X163.378 Y50.36 E.18651
G1 X163.119 Y50.751 E.01703
G1 X166.36 Y53.992 E.1664
G1 X165.711 Y53.992 E.0236
G1 X162.861 Y51.143 E.14629
G1 X162.603 Y51.535 E.01703
G1 X165.061 Y53.992 E.12618
G1 X164.411 Y53.992 E.0236
G1 X162.345 Y51.926 E.10608
G1 X162.086 Y52.318 E.01703
G1 X163.761 Y53.992 E.08597
G1 X163.111 Y53.992 E.0236
G1 X161.828 Y52.71 E.06586
G1 X161.57 Y53.101 E.01703
G1 X162.461 Y53.992 E.04575
G1 X161.811 Y53.992 E.0236
G1 X161.311 Y53.493 E.02564
G1 X161.053 Y53.885 E.01703
G1 X161.367 Y54.198 E.0161
G1 E-1.6 F4800
;WIPE_START
G1 F3000
G1 X161.053 Y53.885 E-.08868
G1 X161.311 Y53.493 E-.09383
G1 X161.811 Y53.992 E-.14128
G1 X162.192 Y53.992 E-.07621
;WIPE_END
G1 X165.673 Y47.2 Z.6 F21000
G1 X179.022 Y21.158 Z.6
G1 Z.2
G1 E2 F4800
G1 F3000
G1 X179.746 Y21.881 E.03715
G1 X179.746 Y22.531 E.0236
G1 X178.578 Y21.363 E.05996
G1 X177.928 Y21.363 E.0236
G1 X179.746 Y23.181 E.09333
G1 X179.746 Y23.831 E.0236
G1 X177.278 Y21.363 E.1267
G1 X176.628 Y21.363 E.0236
G1 X179.746 Y24.481 E.16007
G1 X179.746 Y24.989 E.01843
G1 X179.603 Y24.989 E.00517
G1 X175.978 Y21.363 E.18613
G1 X175.328 Y21.363 E.0236
G1 X178.953 Y24.989 E.18613
G1 X178.304 Y24.989 E.0236
G1 X174.678 Y21.363 E.18613
G1 X174.028 Y21.363 E.0236
G1 X177.654 Y24.989 E.18613
G1 X177.004 Y24.989 E.0236
G1 X173.378 Y21.363 E.18613
G1 X172.728 Y21.363 E.0236
G1 X176.354 Y24.989 E.18613
G1 X175.704 Y24.989 E.0236
G1 X172.078 Y21.363 E.18613
G1 X171.428 Y21.363 E.0236
G1 X175.054 Y24.989 E.18613
G1 X174.404 Y24.989 E.0236
G1 X170.778 Y21.363 E.18613
G1 X170.129 Y21.363 E.0236
G1 X173.754 Y24.989 E.18613
G1 X173.104 Y24.989 E.0236
G1 X169.479 Y21.363 E.18613
G1 X168.829 Y21.363 E.0236
G1 X172.454 Y24.989 E.18613
G1 X171.804 Y24.989 E.0236
G1 X168.179 Y21.363 E.18613
G1 X167.529 Y21.363 E.0236
G1 X171.154 Y24.989 E.18613
G1 X171.12 Y24.989 E.00122
G1 X170.875 Y25.36 E.01615
G1 X166.879 Y21.363 E.20519
G1 X166.229 Y21.363 E.0236
G1 X170.617 Y25.752 E.2253
G1 X170.359 Y26.143 E.01703
G1 X165.579 Y21.363 E.24541
G1 X164.929 Y21.363 E.0236
G1 X170.101 Y26.535 E.26552
G1 X169.842 Y26.927 E.01703
G1 X164.279 Y21.363 E.28562
G1 X163.629 Y21.363 E.0236
G1 X169.584 Y27.318 E.30573
G1 X169.326 Y27.71 E.01703
G1 X162.979 Y21.363 E.32584
G1 X162.329 Y21.363 E.0236
G1 X169.067 Y28.102 E.34595
G1 X168.809 Y28.493 E.01703
G1 X161.679 Y21.363 E.36605
G1 X161.029 Y21.363 E.0236
G1 X168.551 Y28.885 E.38616
G1 X168.292 Y29.277 E.01703
G1 X160.379 Y21.363 E.40627
G1 X159.729 Y21.363 E.0236
G1 X168.034 Y29.668 E.42638
G1 X167.776 Y30.06 E.01703
G1 X159.079 Y21.363 E.44648
G1 X158.429 Y21.363 E.0236
G1 X167.518 Y30.451 E.46659
G1 X167.259 Y30.843 E.01703
G1 X157.78 Y21.363 E.4867
G1 X157.13 Y21.363 E.0236
G1 X167.001 Y31.235 E.50681
G1 X166.743 Y31.626 E.01703
G1 X156.48 Y21.363 E.52692
G1 X155.83 Y21.363 E.0236
G1 X166.484 Y32.018 E.54702
G1 X166.226 Y32.41 E.01703
G1 X155.18 Y21.363 E.56713
G1 X154.53 Y21.363 E.0236
G1 X165.968 Y32.801 E.58724
G1 X165.709 Y33.193 E.01703
G1 X153.88 Y21.363 E.60735
G1 X153.23 Y21.363 E.0236
G1 X165.451 Y33.585 E.62745
G1 X165.193 Y33.976 E.01703
G1 X152.58 Y21.363 E.64756
G1 X151.93 Y21.363 E.0236
G1 X164.935 Y34.368 E.66767
G1 X164.676 Y34.76 E.01703
G1 X151.28 Y21.363 E.68778
G1 X150.63 Y21.363 E.0236
G1 X164.418 Y35.151 E.70788
G1 X164.16 Y35.543 E.01703
G1 X149.98 Y21.363 E.72799
G1 X149.33 Y21.363 E.0236
G1 X163.901 Y35.934 E.7481
G1 X163.643 Y36.326 E.01703
G1 X148.68 Y21.363 E.76821
G1 X148.03 Y21.363 E.0236
G1 X163.385 Y36.718 E.78831
G1 X163.126 Y37.109 E.01703
G1 X147.38 Y21.363 E.80842
G1 X146.73 Y21.363 E.0236
G1 X162.868 Y37.501 E.82853
G1 X162.61 Y37.893 E.01703
G1 X146.08 Y21.363 E.84864
G1 X145.431 Y21.363 E.0236
G1 X162.351 Y38.284 E.86874
G1 X162.093 Y38.676 E.01703
G1 X154.098 Y30.681 E.4105
G1 X153.458 Y29.506 E.04854
G1 X151.057 Y27.094 E.12355
G1 X149.988 Y26.571 E.04324
G1 X144.781 Y21.363 E.26734
G1 X144.131 Y21.363 E.0236
G1 X148.714 Y25.947 E.23531
G1 X147.802 Y25.5 E.03686
G1 X147.591 Y25.473 E.00774
G1 X143.481 Y21.363 E.211
G1 X142.831 Y21.363 E.0236
G1 X146.846 Y25.379 E.20615
G1 X146.102 Y25.284 E.02724
G1 X142.181 Y21.363 E.2013
G1 X141.531 Y21.363 E.0236
G1 X145.357 Y25.19 E.19644
G1 X144.613 Y25.095 E.02724
G1 X140.881 Y21.363 E.19159
G1 X140.231 Y21.363 E.0236
G1 X143.868 Y25.001 E.18674
G1 X143.707 Y24.98 E.0059
G1 X143.259 Y25.041 E.01642
G1 X139.581 Y21.363 E.18882
G1 X138.931 Y21.363 E.0236
G1 X142.687 Y25.119 E.19282
G1 X142.115 Y25.197 E.02096
G1 X138.281 Y21.363 E.19682
G1 X137.631 Y21.363 E.0236
G1 X141.543 Y25.275 E.20082
G1 X140.971 Y25.353 E.02096
G1 X136.981 Y21.363 E.20482
G1 X136.331 Y21.363 E.0236
G1 X140.399 Y25.431 E.20882
G1 X139.827 Y25.509 E.02096
G1 X135.681 Y21.363 E.21283
G1 X135.031 Y21.363 E.0236
G1 X139.343 Y25.675 E.22137
G1 X138.917 Y25.899 E.01747
G1 X134.381 Y21.363 E.23287
G1 X133.731 Y21.363 E.0236
G1 X138.491 Y26.123 E.24436
G1 X138.065 Y26.347 E.01747
G1 X133.081 Y21.363 E.25586
G1 X132.432 Y21.363 E.0236
G1 X137.639 Y26.571 E.26735
G1 X137.213 Y26.795 E.01747
G1 X132.045 Y21.627 E.26531
G1 X132.045 Y22.277 E.0236
G1 X136.787 Y27.019 E.24343
G1 X136.361 Y27.242 E.01747
G1 X132.045 Y22.927 E.22156
G1 X132.045 Y23.577 E.0236
G1 X136.04 Y27.572 E.2051
G1 X135.724 Y27.905 E.01669
G1 X132.045 Y24.227 E.18886
G1 X132.045 Y24.877 E.0236
G1 X135.408 Y28.239 E.17262
G1 X135.091 Y28.573 E.01669
G1 X132.045 Y25.527 E.15639
G1 X132.045 Y26.177 E.0236
